X: 1
T: Motorway
M: 3/4
L: 1/8
R: mazurka
K: Dmaj
DE {G}ED|:F2 DE {G}ED|A2 DE {G}ED|cd cA GB|A2 DE {G}ED|
F2 DE {G}ED|A2 DE {G}ED|cd cA GB|1 A2 DE {G}ED :|2 A2 AF GA||
|:B2 BA Bd|B2A2G2|A2 AG Ad|A2G2F2|
G2 GF Gd|G2F2E2|1 DC DE [DF]E|F[EG] FG AD:|2 DC DE FG| [E2A,2] ||
